X:20
T:The Drunken Sailor
Z:Jack Campin  *  May 2000  *  http://www.campin.me.uk/
M:2/4
L:1/8
K:G
D|GG/G/ GG/G/|Bd BG|AA/A/ AA/A/|FA FD|GG/G/    GG/G/|Bd BG|eg f/g/a/f/|g2 z:|
d|g>a   ba/g/|fa fd|e>f/  gf/e/|dg dB|c/B/c/d/ ed/c/|Bd gd|eg f/g/a/f/|g2 z:|
z|ee/e/ ee/e/|eG ce|dd/d/ dd/d/|dG cd|ee/e/    ee/e/|ef ga|ge dB      |A2 A:|

